X:1019
T:Lilac Reel, The
R:reel
C:Mair\'ead McMahon
D:D\'eanta: Ready for the Storm
Z:id:hn-reel-1019
M:C|
L:1/8
K:Ador
~e3d cA~A2 | (3Bcd ed cA~A2 | ~e3d cA~A2 | BAGA Bcdg |
e2ed cA~A2 | (3Bcd ed cA~A2 | ~a3g e2ed | cAGB A2Bd :|
|: eaag ~e3d | (3Bcd ed cA~A2 | ~e3d c2cd | eaab aged |
eaag ~e3d | (3Bcd ed cA~A2 | ~e3d cA~A2 | BAGB A2Bd :|

